assets/images/icon/ilaris-fvtt_nahkampf_white.svg

<?xml version="1.0" encoding="UTF-8" standalone="no"?>
<svg
   xmlns:dc="http://purl.org/dc/elements/1.1/"
   xmlns:cc="http://creativecommons.org/ns#"
   xmlns:rdf="http://www.w3.org/1999/02/22-rdf-syntax-ns#"
   xmlns:svg="http://www.w3.org/2000/svg"
   xmlns="http://www.w3.org/2000/svg"
   xmlns:sodipodi="http://sodipodi.sourceforge.net/DTD/sodipodi-0.dtd"
   xmlns:inkscape="http://www.inkscape.org/namespaces/inkscape"
   viewBox="0 0 512 512"
   width="512"
   height="512"
   version="1.1"
   id="svg5"
   sodipodi:docname="ilaris-fvtt_nahkampf_white.svg"
   inkscape:version="1.0 (4035a4fb49, 2020-05-01)">
  <metadata
     id="metadata11">
    <rdf:RDF>
      <cc:Work
         rdf:about="">
        <dc:format>image/svg+xml</dc:format>
        <dc:type
           rdf:resource="http://purl.org/dc/dcmitype/StillImage" />
        <dc:title></dc:title>
        <cc:license
           rdf:resource="http://creativecommons.org/publicdomain/zero/1.0/" />
      </cc:Work>
      <cc:License
         rdf:about="http://creativecommons.org/publicdomain/zero/1.0/">
        <cc:permits
           rdf:resource="http://creativecommons.org/ns#Reproduction" />
        <cc:permits
           rdf:resource="http://creativecommons.org/ns#Distribution" />
        <cc:permits
           rdf:resource="http://creativecommons.org/ns#DerivativeWorks" />
      </cc:License>
    </rdf:RDF>
  </metadata>
  <defs
     id="defs9" />
  <sodipodi:namedview
     guideopacity="0.49803922"
     guidecolor="#00ff00"
     inkscape:guide-bbox="true"
     showguides="true"
     inkscape:showpageshadow="false"
     borderlayer="false"
     inkscape:document-rotation="0"
     pagecolor="#323232"
     bordercolor="#666666"
     borderopacity="1"
     objecttolerance="10"
     gridtolerance="10"
     guidetolerance="10"
     inkscape:pageopacity="0.61960784"
     inkscape:pageshadow="2"
     inkscape:window-width="3840"
     inkscape:window-height="2066"
     id="namedview7"
     showgrid="false"
     inkscape:zoom="1.8732344"
     inkscape:cx="95.082801"
     inkscape:cy="170.78842"
     inkscape:window-x="-11"
     inkscape:window-y="-11"
     inkscape:window-maximized="1"
     inkscape:current-layer="svg5">
    <sodipodi:guide
       id="guide869"
       orientation="-1,0"
       position="256,256"
       inkscape:label=""
       inkscape:locked="false"
       inkscape:color="rgb(0,255,0)" />
    <sodipodi:guide
       id="guide905"
       orientation="0,1"
       position="256,256"
       inkscape:label=""
       inkscape:locked="false"
       inkscape:color="rgb(0,255,0)" />
  </sodipodi:namedview>
  <filter
     id="shadow">
    <feDropShadow
       dx="6"
       dy="12"
       stdDeviation="6" />
  </filter>
  <path
     d="M 256 71.009766 C 248.61677 71.009765 241.33936 71.456148 234.18359 72.294922 C 249.44047 98.59628 262.80574 125.59024 274.95703 153.16016 L 298.36914 124.1875 A 15.0015 15.0015 0 0 1 302.39453 120.70703 L 346.50586 94.59375 C 319.75666 79.58007 288.89205 71.009766 256 71.009766 z M 192.18359 82.310547 C 156.54221 95.389403 126.05452 119.09521 104.57812 149.62109 C 105.4475 150.63944 106.30193 151.66763 107.125 152.71484 C 116.79968 150.05067 127.30177 149.11305 138.05469 150.35352 A 15.958499 14.101896 6.5838108 0 1 152.29102 166.19141 L 151.52734 172.80664 A 15.958499 14.101896 6.5838108 0 1 143.25195 183.58789 C 161.64215 206.47749 179.68331 229.4828 195.77148 251.15039 L 221.9043 218.8125 C 209.30772 174.27269 198.94426 129.34495 192.18359 82.310547 z M 373.80469 113.29492 L 333.97656 136.87109 L 335.74219 140.16797 L 376.82422 115.84766 C 375.82606 114.98678 374.8213 114.13464 373.80469 113.29492 z M 231.01367 130.15234 C 235.13133 150.3031 239.88726 170.21487 245.13672 190.0625 L 253.56641 179.63086 C 246.46393 162.85489 239.00605 146.34952 231.01367 130.15234 z M 398.46094 137.90234 L 337.55078 173.96094 A 15.0015 15.0015 0 0 1 333.11719 175.70508 A 15.0015 15.0015 0 0 1 331.76562 177.60938 L 300.2793 215.36133 C 313.61795 250.53863 325.90135 286.45156 338.45703 322.86719 C 348.66231 317.36893 358.65736 311.29551 368.375 304.65039 A 15.0015 15.0015 0 0 1 391.01172 312.11133 L 400.04883 338.13281 A 15.0015 15.0015 0 0 1 390.79883 357.22461 L 340.96875 374.52734 C 343.53226 388.07422 347.36811 401.20194 352.34766 413.99609 C 405.54064 381.52355 441.00977 322.94747 441.00977 256 C 441.00976 211.07928 425.03744 169.92964 398.46094 137.90234 z M 110.16797 191.55078 L 110.11523 192.51562 C 112.94003 195.3393 115.76433 198.14948 118.58789 200.94922 C 116.11742 197.86844 113.69872 194.79592 111.2168 191.72266 L 110.16797 191.55078 z M 93.634766 217.99414 A 15.958499 14.101896 6.5838108 0 1 79.339844 223.13086 L 74.013672 222.51758 C 72.032541 233.37615 70.990235 244.56478 70.990234 256 C 70.990234 294.89649 82.970418 330.96219 103.43555 360.73047 L 166.43555 287.45703 C 143.49853 266.66293 118.64391 242.83678 93.634766 217.99414 z M 278.10352 241.95117 L 264.86523 257.82422 C 274.96526 289.93823 286.05209 322.3858 297.66992 355.88867 A 15.0015 15.0015 0 0 1 298.20117 357.84375 A 15.0015 15.0015 0 0 1 309.67773 360.62695 A 15.0015 15.0015 0 0 1 316.85742 351.38672 A 15.0015 15.0015 0 0 1 315.74219 348.91797 C 303.07179 312.3472 290.93307 276.6484 278.10352 241.95117 z M 242.15625 285.05078 L 229.80273 299.86328 C 231.82915 303.02435 233.79556 306.13882 235.625 309.14648 A 15.958499 14.101896 6.5838108 0 1 211.15039 325.9375 C 210.54574 325.45314 209.91551 324.9345 209.30469 324.44141 L 143.71875 403.08008 C 174.84515 426.86223 213.75239 440.99024 256 440.99023 C 275.08226 440.99023 293.48297 438.10819 310.79492 432.75781 C 306.79003 418.06648 301.38752 404.0515 294.08398 390.80859 L 243.76172 408.2832 A 15.0015 15.0015 0 0 1 224.66992 399.0332 L 215.63477 373.01172 A 15.0015 15.0015 0 0 1 229.58594 353.09375 C 241.22835 352.92432 252.64941 351.6967 263.88672 349.66797 C 256.37779 327.89343 249.09828 306.42189 242.15625 285.05078 z "
     style="color:#000000;font-style:normal;font-variant:normal;font-weight:normal;font-stretch:normal;font-size:medium;line-height:normal;font-family:sans-serif;font-variant-ligatures:normal;font-variant-position:normal;font-variant-caps:normal;font-variant-numeric:normal;font-variant-alternates:normal;font-variant-east-asian:normal;font-feature-settings:normal;font-variation-settings:normal;text-indent:0;text-align:start;text-decoration:none;text-decoration-line:none;text-decoration-style:solid;text-decoration-color:#000000;letter-spacing:normal;word-spacing:normal;text-transform:none;writing-mode:lr-tb;direction:ltr;text-orientation:mixed;dominant-baseline:auto;baseline-shift:baseline;text-anchor:start;white-space:normal;shape-padding:0;shape-margin:0;inline-size:0;clip-rule:nonzero;display:inline;overflow:visible;visibility:visible;isolation:auto;mix-blend-mode:normal;color-interpolation:sRGB;color-interpolation-filters:linearRGB;solid-color:#000000;solid-opacity:1;vector-effect:none;fill:#ffffff;fill-opacity:1;fill-rule:evenodd;stroke:none;stroke-width:15.0001;stroke-linecap:round;stroke-linejoin:round;stroke-miterlimit:4;stroke-dasharray:none;stroke-dashoffset:0;stroke-opacity:1;paint-order:normal;color-rendering:auto;image-rendering:auto;shape-rendering:auto;text-rendering:auto;enable-background:accumulate;stop-color:#000000"
     id="path840" />
  <path
     d="M 457.2168 49.333984 C 455.1587 49.381175 452.72441 49.860875 449.84961 50.845703 L 310.03516 133.61523 L 281.66797 168.71875 C 285.94619 178.85549 290.07723 189.06894 294.10352 199.3457 L 320.24609 168.00195 L 318.60742 139.94531 L 329.9082 161.05273 L 461.96289 82.878906 C 468.93108 74.526652 469.3941 68.391344 467.64062 61.216797 L 453.69531 64.060547 L 466.86523 56.742188 C 465.57165 52.384864 462.98373 49.52833 458.07617 49.339844 C 457.79733 49.329134 457.51081 49.327243 457.2168 49.333984 z M 260.11523 195.39062 L 249.99805 207.91016 C 253.05772 218.84805 256.24925 229.78435 259.58008 240.74219 L 272.04688 225.79297 C 268.15737 215.56843 264.19501 205.42741 260.11523 195.39062 z M 226.99023 236.38281 L 204.94336 263.66602 C 210.70963 271.63363 216.14948 279.3647 221.17773 286.78711 L 236.73633 268.13281 C 233.38915 257.54452 230.12274 246.96621 226.99023 236.38281 z M 177.59961 297.47852 L 50.210938 445.64453 C 55.48979 458.11386 59.798745 460.39064 73.236328 464.16992 L 197.73047 314.89844 C 191.2719 309.46285 184.54733 303.63942 177.59961 297.47852 z "
     style="color:#000000;font-style:normal;font-variant:normal;font-weight:normal;font-stretch:normal;font-size:medium;line-height:normal;font-family:sans-serif;font-variant-ligatures:normal;font-variant-position:normal;font-variant-caps:normal;font-variant-numeric:normal;font-variant-alternates:normal;font-variant-east-asian:normal;font-feature-settings:normal;font-variation-settings:normal;text-indent:0;text-align:start;text-decoration:none;text-decoration-line:none;text-decoration-style:solid;text-decoration-color:#000000;letter-spacing:normal;word-spacing:normal;text-transform:none;writing-mode:lr-tb;direction:ltr;text-orientation:mixed;dominant-baseline:auto;baseline-shift:baseline;text-anchor:start;white-space:normal;shape-padding:0;shape-margin:0;inline-size:0;clip-rule:nonzero;display:inline;overflow:visible;visibility:visible;isolation:auto;mix-blend-mode:normal;color-interpolation:sRGB;color-interpolation-filters:linearRGB;solid-color:#000000;solid-opacity:1;vector-effect:none;fill:#ffffff;fill-opacity:1;fill-rule:nonzero;stroke:none;stroke-width:30;stroke-linecap:round;stroke-linejoin:round;stroke-miterlimit:4;stroke-dasharray:none;stroke-dashoffset:0;stroke-opacity:1;paint-order:stroke fill markers;color-rendering:auto;image-rendering:auto;shape-rendering:auto;text-rendering:auto;enable-background:accumulate;stop-color:#000000"
     id="path861" />
  <path
     id="path855"
     d="m 203.31502,50.712101 c 11.74074,108.676359 43.64795,204.735459 80.18192,310.090109 -17.35806,4.45797 -35.27581,7.02096 -53.69244,7.28898 l 9.03583,26.02128 61.85029,-21.47736 c 18.88805,29.20824 27.96358,61.82588 32.32385,96.07986 l 25.19111,-8.74755 c -17.52718,-29.6818 -29.5445,-61.27792 -34.03252,-95.48653 l 61.7052,-21.42697 -9.03614,-26.0222 c -14.99436,10.25345 -30.6574,19.37889 -46.92619,26.97661 C 293.61691,239.2379 261.56195,139.95004 203.31624,50.712701 Z"
     style="color:#000000;font-style:normal;font-variant:normal;font-weight:normal;font-stretch:normal;font-size:medium;line-height:normal;font-family:sans-serif;font-variant-ligatures:normal;font-variant-position:normal;font-variant-caps:normal;font-variant-numeric:normal;font-variant-alternates:normal;font-variant-east-asian:normal;font-feature-settings:normal;font-variation-settings:normal;text-indent:0;text-align:start;text-decoration:none;text-decoration-line:none;text-decoration-style:solid;text-decoration-color:#000000;letter-spacing:normal;word-spacing:normal;text-transform:none;writing-mode:lr-tb;direction:ltr;text-orientation:mixed;dominant-baseline:auto;baseline-shift:baseline;text-anchor:start;white-space:normal;shape-padding:0;shape-margin:0;inline-size:0;clip-rule:nonzero;display:inline;overflow:visible;visibility:visible;isolation:auto;mix-blend-mode:normal;color-interpolation:sRGB;color-interpolation-filters:linearRGB;solid-color:#000000;solid-opacity:1;vector-effect:none;fill:#ffffff;fill-opacity:1;fill-rule:nonzero;stroke:none;stroke-width:30;stroke-linecap:round;stroke-linejoin:round;stroke-miterlimit:4;stroke-dasharray:none;stroke-dashoffset:0;stroke-opacity:1;paint-order:stroke fill markers;color-rendering:auto;image-rendering:auto;shape-rendering:auto;text-rendering:auto;enable-background:accumulate;stop-color:#000000" />
  <path
     style="color:#000000;font-style:normal;font-variant:normal;font-weight:normal;font-stretch:normal;font-size:medium;line-height:normal;font-family:sans-serif;font-variant-ligatures:normal;font-variant-position:normal;font-variant-caps:normal;font-variant-numeric:normal;font-variant-alternates:normal;font-variant-east-asian:normal;font-feature-settings:normal;font-variation-settings:normal;text-indent:0;text-align:start;text-decoration:none;text-decoration-line:none;text-decoration-style:solid;text-decoration-color:#000000;letter-spacing:normal;word-spacing:normal;text-transform:none;writing-mode:lr-tb;direction:ltr;text-orientation:mixed;dominant-baseline:auto;baseline-shift:baseline;text-anchor:start;white-space:normal;shape-padding:0;shape-margin:0;inline-size:0;clip-rule:nonzero;display:inline;overflow:visible;visibility:visible;isolation:auto;mix-blend-mode:normal;color-interpolation:sRGB;color-interpolation-filters:linearRGB;solid-color:#000000;solid-opacity:1;vector-effect:none;fill:#ffffff;fill-opacity:1;fill-rule:nonzero;stroke:none;stroke-width:30;stroke-linecap:round;stroke-linejoin:round;stroke-miterlimit:4;stroke-dasharray:none;stroke-dashoffset:0;stroke-opacity:1;paint-order:stroke fill markers;color-rendering:auto;image-rendering:auto;shape-rendering:auto;text-rendering:auto;enable-background:accumulate;stop-color:#000000"
     d="m 67.500128,126.4683 c -3.915878,-0.34867 -8.554604,0.88844 -12.536002,3.66404 -6.705739,4.67517 -9.02405,11.93984 -5.170654,16.22692 2.874033,3.1967 8.370321,3.84505 13.75695,2.02536 5.248022,11.38347 14.527972,22.36685 25.494141,30.33484 -8.505042,7.68218 -14.22993,17.89746 -15.573784,29.54086 l 7.485387,0.86395 c 1.18061,-10.22904 6.202757,-19.18045 13.678331,-25.8696 l -0.746182,14.04691 C 140.02646,243.61163 186.73466,287.60955 221.64809,315.57764 199.28927,278.81881 159.93243,227.8857 120.24891,178.91443 l -15.52248,-2.55336 c 8.95748,-4.58996 19.70057,-6.6809 30.9488,-5.38373 l 0.76347,-6.6149 c -12.89763,-1.48789 -25.2499,0.93236 -35.5601,6.218 -6.288247,-11.2643 -16.314839,-21.78152 -27.725227,-28.91094 3.24248,-4.19797 3.801526,-9.03813 0.929733,-12.23314 -1.565386,-1.74156 -3.903376,-2.72873 -6.582618,-2.96766 z"
     id="path849" />
</svg>

<svg xmlns="http://www.w3.org/2000/svg" width="512" height="512" viewBox="0 0 512 512"><path d="M256 71.01c-7.383 0-14.66.446-21.816 1.285 15.256 26.301 28.622 53.295 40.773 80.865l23.412-28.972a15 15 0 0 1 4.026-3.481l44.11-26.113C319.758 79.58 288.893 71.01 256 71.01m-63.816 11.3c-35.642 13.08-66.13 36.785-87.606 67.311a99 99 0 0 1 2.547 3.094 81.4 81.4 0 0 1 30.93-2.361 15.958 14.102 6.584 0 1 14.236 15.837l-.764 6.616a15.958 14.102 6.584 0 1-8.275 10.78c18.39 22.89 36.431 45.896 52.52 67.563l26.132-32.338c-12.596-44.54-22.96-89.467-29.72-136.501m181.62 30.985-39.827 23.576 1.765 3.297 41.082-24.32q-1.496-1.292-3.02-2.553m-142.79 16.857c4.117 20.151 8.873 40.063 14.123 59.91l8.43-10.431c-7.103-16.776-14.561-33.281-22.553-49.479m167.447 7.75-60.91 36.059a15 15 0 0 1-4.434 1.744 15 15 0 0 1-1.351 1.904l-31.487 37.752c13.339 35.178 25.622 71.09 38.178 107.506a332 332 0 0 0 29.918-18.217 15.002 15.002 0 0 1 22.637 7.461l9.037 26.022a15 15 0 0 1-9.25 19.092l-49.83 17.302c2.563 13.547 6.4 26.675 11.379 39.47C405.54 381.523 441.01 322.946 441.01 256c0-44.92-15.973-86.07-42.55-118.098m-288.293 53.649-.053.965q4.238 4.234 8.473 8.433c-2.47-3.08-4.89-6.153-7.371-9.226zm-16.533 26.443a15.958 14.102 6.584 0 1-14.295 5.137l-5.326-.613A186.4 186.4 0 0 0 70.99 256c0 38.896 11.98 74.962 32.446 104.73l63-73.273c-22.937-20.794-47.792-44.62-72.801-69.463m184.469 23.957-13.239 15.873c10.1 32.114 21.187 64.562 32.805 98.065a15 15 0 0 1 .531 1.955 15 15 0 0 1 11.477 2.783 15 15 0 0 1 7.18-9.24 15 15 0 0 1-1.116-2.469c-12.67-36.57-24.809-72.27-37.638-106.967m-35.948 43.1-12.353 14.812a469 469 0 0 1 5.822 9.283 15.958 14.102 6.584 0 1-24.475 16.791c-.604-.484-1.234-1.002-1.845-1.496l-65.586 78.64c31.126 23.781 70.033 37.91 112.281 37.91 19.082 0 37.483-2.883 54.795-8.233-4.005-14.692-9.407-28.707-16.711-41.95l-50.322 17.475a15 15 0 0 1-19.092-9.25l-9.035-26.021a15.002 15.002 0 0 1 13.95-19.918c11.643-.17 23.064-1.397 34.302-3.426-7.51-21.775-14.789-43.246-21.73-64.617" style="color:#000;font-style:normal;font-variant:normal;font-weight:400;font-stretch:normal;font-size:medium;line-height:normal;font-family:sans-serif;font-variant-ligatures:normal;font-variant-position:normal;font-variant-caps:normal;font-variant-numeric:normal;font-variant-alternates:normal;font-variant-east-asian:normal;font-feature-settings:normal;font-variation-settings:normal;text-indent:0;text-align:start;text-decoration:none;text-decoration-line:none;text-decoration-style:solid;text-decoration-color:#000;letter-spacing:normal;word-spacing:normal;text-transform:none;writing-mode:lr-tb;direction:ltr;text-orientation:mixed;dominant-baseline:auto;baseline-shift:baseline;text-anchor:start;white-space:normal;shape-padding:0;shape-margin:0;inline-size:0;clip-rule:nonzero;display:inline;overflow:visible;visibility:visible;isolation:auto;mix-blend-mode:normal;color-interpolation:sRGB;color-interpolation-filters:linearRGB;solid-color:#000;solid-opacity:1;vector-effect:none;fill:#fff;fill-opacity:1;fill-rule:evenodd;stroke:none;stroke-width:15.0001;stroke-linecap:round;stroke-linejoin:round;stroke-miterlimit:4;stroke-dasharray:none;stroke-dashoffset:0;stroke-opacity:1;paint-order:normal;color-rendering:auto;image-rendering:auto;shape-rendering:auto;text-rendering:auto;stop-color:#000"/><path d="M457.217 49.334c-2.058.047-4.493.527-7.367 1.512l-139.815 82.77-28.367 35.103c4.278 10.136 8.41 20.35 12.436 30.627l26.142-31.344-1.639-28.057 11.301 21.108 132.055-78.174c6.968-8.352 7.431-14.488 5.678-21.662l-13.946 2.844 13.17-7.319c-1.293-4.357-3.881-7.214-8.789-7.402q-.418-.016-.86-.006M260.115 195.391l-10.117 12.52a1531 1531 0 0 0 9.582 32.831l12.467-14.949a1447 1447 0 0 0-11.932-30.402m-33.125 40.992-22.047 27.283c5.767 7.968 11.206 15.699 16.235 23.121l15.558-18.654c-3.347-10.588-6.613-21.167-9.746-31.75m-49.39 61.096L50.21 445.645c5.28 12.469 9.589 14.746 23.026 18.525L197.73 314.898a1034 1034 0 0 1-20.13-17.42" style="color:#000;font-style:normal;font-variant:normal;font-weight:400;font-stretch:normal;font-size:medium;line-height:normal;font-family:sans-serif;font-variant-ligatures:normal;font-variant-position:normal;font-variant-caps:normal;font-variant-numeric:normal;font-variant-alternates:normal;font-variant-east-asian:normal;font-feature-settings:normal;font-variation-settings:normal;text-indent:0;text-align:start;text-decoration:none;text-decoration-line:none;text-decoration-style:solid;text-decoration-color:#000;letter-spacing:normal;word-spacing:normal;text-transform:none;writing-mode:lr-tb;direction:ltr;text-orientation:mixed;dominant-baseline:auto;baseline-shift:baseline;text-anchor:start;white-space:normal;shape-padding:0;shape-margin:0;inline-size:0;clip-rule:nonzero;display:inline;overflow:visible;visibility:visible;isolation:auto;mix-blend-mode:normal;color-interpolation:sRGB;color-interpolation-filters:linearRGB;solid-color:#000;solid-opacity:1;vector-effect:none;fill:#fff;fill-opacity:1;fill-rule:nonzero;stroke:none;stroke-width:30;stroke-linecap:round;stroke-linejoin:round;stroke-miterlimit:4;stroke-dasharray:none;stroke-dashoffset:0;stroke-opacity:1;paint-order:stroke fill markers;color-rendering:auto;image-rendering:auto;shape-rendering:auto;text-rendering:auto;stop-color:#000"/><path d="M203.315 50.712c11.74 108.676 43.648 204.736 80.182 310.09-17.358 4.458-35.276 7.021-53.693 7.29l9.036 26.02 61.85-21.477c18.889 29.208 27.964 61.826 32.324 96.08l25.192-8.748c-17.528-29.681-29.545-61.277-34.033-95.486l61.705-21.427-9.036-26.022c-14.994 10.253-30.657 19.379-46.926 26.976-36.3-104.77-68.354-204.058-126.6-293.295ZM67.5 126.468c-3.916-.348-8.554.889-12.536 3.664-6.706 4.676-9.024 11.94-5.17 16.227 2.874 3.197 8.37 3.845 13.756 2.026 5.248 11.383 14.528 22.366 25.495 30.334-8.505 7.683-14.23 17.898-15.574 29.541l7.485.864c1.18-10.229 6.203-19.18 13.678-25.87l-.746 14.048c46.138 46.31 92.847 90.308 127.76 118.276-22.359-36.76-61.716-87.692-101.4-136.664l-15.522-2.553c8.958-4.59 19.701-6.68 30.95-5.384l.763-6.615c-12.898-1.487-25.25.933-35.56 6.218-6.289-11.264-16.315-21.781-27.726-28.91 3.243-4.198 3.802-9.039.93-12.234-1.565-1.741-3.903-2.728-6.583-2.967z" style="color:#000;font-style:normal;font-variant:normal;font-weight:400;font-stretch:normal;font-size:medium;line-height:normal;font-family:sans-serif;font-variant-ligatures:normal;font-variant-position:normal;font-variant-caps:normal;font-variant-numeric:normal;font-variant-alternates:normal;font-variant-east-asian:normal;font-feature-settings:normal;font-variation-settings:normal;text-indent:0;text-align:start;text-decoration:none;text-decoration-line:none;text-decoration-style:solid;text-decoration-color:#000;letter-spacing:normal;word-spacing:normal;text-transform:none;writing-mode:lr-tb;direction:ltr;text-orientation:mixed;dominant-baseline:auto;baseline-shift:baseline;text-anchor:start;white-space:normal;shape-padding:0;shape-margin:0;inline-size:0;clip-rule:nonzero;display:inline;overflow:visible;visibility:visible;isolation:auto;mix-blend-mode:normal;color-interpolation:sRGB;color-interpolation-filters:linearRGB;solid-color:#000;solid-opacity:1;vector-effect:none;fill:#fff;fill-opacity:1;fill-rule:nonzero;stroke:none;stroke-width:30;stroke-linecap:round;stroke-linejoin:round;stroke-miterlimit:4;stroke-dasharray:none;stroke-dashoffset:0;stroke-opacity:1;paint-order:stroke fill markers;color-rendering:auto;image-rendering:auto;shape-rendering:auto;text-rendering:auto;stop-color:#000"/></svg>
